mimetypes/scalable/application-x-lyx.svg

<?xml version="1.0" standalone="no"?><!-- Generator: Gravit.io --><svg xmlns="http://www.w3.org/2000/svg" xmlns:xlink="http://www.w3.org/1999/xlink" style="isolation:isolate" viewBox="0 0 256 256" width="256" height="256"><switch><g><g id="application-mimetype"><g opacity="0.2"><path d=" M 78.924321 15.500025 C 43.627596 15.500025 39.829708 19.125398 40.002695 54.49353 L 40.002695 127.500014 L 40.002695 200.506441 C 39.829708 235.874573 43.627596 239.500004 78.924321 239.500004 L 177.081083 239.500004 C 212.377805 239.500004 216.002702 235.875035 216.002702 200.506441 L 216.002702 127.500014 L 216.002702 54.49353 C 216.002702 19.124994 212.377805 15.500025 177.081083 15.500025 L 78.924321 15.500025 Z " id="path1163" fill="none" vector-effect="non-scaling-stroke" stroke-width="4" stroke="rgb(0,0,0)" stroke-linejoin="miter" stroke-linecap="butt" stroke-miterlimit="4"/></g><defs><filter id="JFxNAUgEAbE1ixm93KxPy3iOlONZQGS0" x="-200%" y="-200%" width="400%" height="400%" filterUnits="objectBoundingBox" color-interpolation-filters="sRGB"><feGaussianBlur xmlns="http://www.w3.org/2000/svg" stdDeviation="2.120027"/></filter></defs><g opacity="0.1" filter="url(#JFxNAUgEAbE1ixm93KxPy3iOlONZQGS0)"><path d=" M 78.924315 16.5 C 43.627592 16.5 39.82971 20.125416 40.002699 55.493531 L 40.002699 128.5 L 40.002699 201.50647 C 39.82971 236.874573 43.627592 240.500001 78.924315 240.500001 L 177.081083 240.500001 C 212.377806 240.500001 215.084425 236.863068 216.002699 201.50647 L 216.002699 128.5 L 216.002699 55.493531 C 216.002699 20.124997 212.377806 16.5 177.081083 16.5 L 78.924315 16.5 Z " id="shadow" fill="rgb(0,0,0)"/></g><defs><filter id="odegOUT2kp6SJ9xpUCR8DOtL5eQujyIA" x="-200%" y="-200%" width="400%" height="400%" filterUnits="objectBoundingBox" color-interpolation-filters="sRGB"><feGaussianBlur xmlns="http://www.w3.org/2000/svg" stdDeviation="8.4801079"/></filter></defs><g opacity="0.3" filter="url(#odegOUT2kp6SJ9xpUCR8DOtL5eQujyIA)"><linearGradient id="_lgradient_247" x1="-0.0681490711308741" y1="0.03125" x2="0.9537210324437329" y2="1.0531201035746074" gradientTransform="matrix(176.005396,0,0,224,39.997303,16.5)" gradientUnits="userSpaceOnUse"><stop offset="0%" stop-opacity="0.58823532" style="stop-color:rgb(0,0,0)"/><stop offset="88%" stop-opacity="0" style="stop-color:rgb(0,0,0)"/><stop offset="100%" stop-opacity="1" style="stop-color:rgb(0,0,0)"/></linearGradient><path d=" M 78.924315 16.5 C 43.627592 16.5 39.82971 20.125416 40.002699 55.493531 L 40.002699 128.5 L 40.002699 201.50647 C 39.82971 236.874573 43.627592 240.500001 78.924315 240.500001 L 177.081083 240.500001 C 212.377806 240.500001 216.002699 236.875001 216.002699 201.50647 L 216.002699 128.5 L 216.002699 55.493531 C 216.002699 20.124997 212.377806 16.5 177.081083 16.5 L 78.924315 16.5 Z " id="blur" fill="url(#_lgradient_247)"/></g><path d=" M 78.924321 15.500025 C 43.627596 15.500025 39.829708 19.125398 40.002695 54.49353 L 40.002695 127.500014 L 40.002695 200.506441 C 39.829708 235.874573 43.627596 239.500004 78.924321 239.500004 L 177.081083 239.500004 C 212.377805 239.500004 216.002702 235.875035 216.002702 200.506441 L 216.002702 127.500014 L 216.002702 54.49353 C 216.002702 19.124994 212.377805 15.500025 177.081083 15.500025 L 78.924321 15.500025 Z " id="shape" fill="rgb(26,127,212)"/><g opacity="0.6"><path d=" M 78.924573 15.500025 C 43.627848 15.500025 39.829708 19.126032 40.002695 54.494165 L 40.002695 56.494138 C 39.829708 21.126005 43.627848 17.499998 78.924573 17.499998 L 177.080824 17.499998 C 212.377545 17.499998 216.002702 21.125601 216.002702 56.494138 L 216.002702 54.494165 C 216.002702 19.125571 212.377545 15.500025 177.080824 15.500025 L 78.924573 15.500025 Z " id="highlight" fill="rgb(255,255,255)"/></g><g opacity="0.1"><path d=" M 128.002691 15.500025 L 128.002691 239.500004 L 177.080824 239.500004 C 212.377531 239.500004 215.084421 235.863501 216.002702 200.506787 L 216.002702 127.500014 L 216.002702 54.493184 C 216.002702 19.124648 212.377531 15.500025 177.080824 15.500025 L 128.002691 15.500025 Z " id="right highlight" fill="rgb(255,255,255)"/></g><g opacity="0.2"><path d=" M 156.002703 239.500004 L 216.002702 179.500005 L 216.002702 201.983857 C 215.950394 235.97965 212.200019 239.500004 177.828601 239.500004 L 156.002703 239.500004 Z " id="clip" fill="rgb(255,255,255)"/></g></g><path d=" M 115.480997 182.000004 L 74 90.011 L 108.226998 73.999996 L 135.146002 136.532 L 167.469498 120.773004 L 182 150.481995" fill-rule="evenodd" id="Path" fill="rgb(255,255,255)"/></g><foreignObject requiredExtensions="http://ns.gravit.io/"><gravitDesigner:gravitElementRef xmlns:gravitDesigner="http://ns.gravit.io/" xlink:href="#Bpt8g0X0PCADK9DDKvsEDpxYGoPik1He"/></foreignObject></switch><gravitDesigner:gravitGraphicSource xmlns:gravitDesigner="http://ns.gravit.io/" id="Bpt8g0X0PCADK9DDKvsEDpxYGoPik1He" version="1"><![CDATA[eMKcw41aacKTw6LDlsKSw70rL8Oww4R8wqpuaxfDqsKIwokYwoEWwrQBwpLDkMOqdkxow58XwrQhw6TDsH8fQVFFw5Fuw7fCq8O2w7N7dhEEcHUzwpXCmTfDj8K5wplXw7XDi8OifxfCnxbCtRMFwovCp8OFfy0+w73DtMOLdSBqwqrCvn4YwqnCnS7CngfCvMK8agN/w7HCqWvDusOgaVF3w608w6HCpwXDrMOsclnCqTlHwpPDvmfCnsO0w4PDvMOGw4/CrEvCicKrwrPDhsOADSlLETM0JMOfwpzCqsONw67CoMKewovCszRPw5nDjMOvw5Bvw4FXw4nCn8KfflrDkMKcVMOIw5rDjsO2woBXVVjDjQzDkcKOYyvDrVzDtAkadFXCpMOwwoHDhcO4w6fCnsOhw7rDksKdwqdcTMOLwpdeLjsZw6Fkb1UpKBjDnVUVw5oBwqXChn0qwowDwrsNJsKRO8K0wqbCo8Knw6nDlMOFNg9ywrvCu8KcXcO5w6nDnRsHw4HDnWJoBzM+w6JORHJKw60oBF5vw4bCs8K5wop7w57CvHlzNcOBCMOFw6zDhcKba2BUwoLDjcKyV1XDrsKEa2M9EMONacK3TcOcwolHwpfDtm5vwp1LTUJTaMKnwow3b8KuwoF5wpHCvMKqw4IlTE4eVMOtwpLCgsODMx3Cq8KSCjTCgz4Mw4jCo1kVXcKkw5oHFQMEw7hmFR7CocORwqvDpEXDlTrDkFPCuX5wEAPDhlTDn8KiwrTCiwZVHhA7f2dlwq0gw4tLdgPDtC0kw5zCrMK6ShbDg8Odw4HDq0DDvBBjwpjDq8Orw6EgwphJPcKKwodYJMK3KhbDmzbCv8OKwonCgFXDvDzCu8OLZQ/Di8OsA1jCuELCskjCkXjDgcOnw4XDiD1sUcKZY3DDr8OYwoBZRQA3b8KuwpJHw67CvsOMw5fDgMOED8OJdw1Ewo9aw6nCmBPCiMOAw5jDssOkwp3Di8KNwoHDixLCvMKXw5c1csOzw6YawpgXw4nCn39+WjRBw5jCjcOdw6JTw5nDp8O5w7XCl1N6ccOVXMKSfMK+w5o1w6HDvAXDvsKIw6MECsOhCMKGAShCw4AIw7oEw4zCr8KvDX/DhDACw4TDgCXCgC9xcH49fVhiw5hHwpBAYAzCgyAMBgl8Vls6RXADGAhiwpdFw7vCv8K2wqvDqsOFJ8OgIzR/w4/CnXNwwrHDoAXChknDmcKJw49Db8OhGSZ5wr5/wr12w5FRw49+LMOWP8O8dDEOw7jDuTIyw4xaQidvwoNfwp/CnsKFw5zCqsOxwoPDplHDjD0tPsOBH8KJw6sfDjzDv8Ohw5jDpULDrl1Ew7rCrsK7TivDssOFJ8OkwrfCt8O5dXbDqMK/w6cRwo/DpsOIw55Ww4sIwpvCiGNMOxoQwoDDvMKxTcKwUgnDtkNiLX7CnWXCgzDDpGYuWSjDgkEKbMKiMcOUJhrDmTXDqsO4wrLCsBxXwpE9wpBnw5DDmwLCixfCg8K/TULCnUfDiCfCksOMacOuNcKlw7zDisONwrRhw6XDm3owwqDChsOrwp8owrfCjyNUA8KOworDqsOMw4vDucKcUsOow6bDh17Cjm7CksKXwpQiSSrCkhtqw4nDnMKzw7PClMOhwok0J3DClynDpcKMcQzCpjYDBsOkfTUEWTfDhcO1LcKlYBoPw6UCIsKrw6zCrcKqwovDrnt2Ch7Ct1NPw5vDvcK4wpwCw4IoHcKPw4Mxwp8nw4ZTw4VGwrrCusOcw5/DpcKOw5EKwr7Dg8K9w5kAw7BJw65zawsqQ8KGeyo2VMOICAfDpWrDq3vCvBvDn8K8wrnCmjAIA0nDizfCgFwDwrMmw4lMflElFsO8wrQGPcKiSE/ChyM6w4VFw5lwKgzCjMOHw7XDhsOtGcKTwrl5w7McwpjCm8OkwpUawpXDg8OqC1VDwrPCn1jCrMKwVXvCrzc0w67CgifDlwhHw5/Cs0zDlyY7wqLCv1nCtcKCwqjDrFXDssOmYCVjDw5Cw4rCmRZZwp3DmMKMw6J4wozCocKTw6UbwoA7wp4FUhTCrELDlMK4F8OYwq4OwqUMF8O9wqvCg1dVwqfChxjCu8OhacKfwo9iJsKIIR0cwrbCgBPClVzCpFbDm8KswqwLwpcLwrvCuxzDvsKww4zDmsKKwrXDosOYwpZYw50hwobDnmnCjsOKwoklMAnDpMKkFjZxXcK7eXPClcO8wpHDuMOxdcKZwp8Dw7PCkHzCtTLDoMKowonDlHTCqzQcCHoMwqHCritWw5vDq8KHdMKgw5dcesOzw6Y5MC/DicO3ThICPsKiN2wCw5DChXVQw6xKQl8Zw74AwqIzwppxGAABCAMhaAnDgk8fIMOgI3JFOAYjIDpzFXLDp8KhNnbDvMOqw7TClsKFw4A/wo/ChcO+GcOzwoAfX8OsB1ACQFEQejfDszwQw5zCjcKFwpQuwpQZw5rDicOicsKjOGnCuQtCBnVcdsOQwoMDDzslw7zDgkIvfsONXwPCr3vDtMOJw43Du8KGwr7Cjl8gOMOfw7ojAcOjGAwTF1LDh3DDsMOlXlLDgcKxRzY3N8OxVgLDu8KWw6PCizbDm3tiwrLDt8OifcOEVsO8w6LDlz/DjGLCpMK7w5nCm8ORw4FZT1jDo8OSwpFjHhvDq0DDgcKEwqVMw6ABccK+woPDhQxbw6PDi8OoUi3DoB1Ew4HDqMOgIMOSwqHCjlnDrRzDucObfBV8B8KLw5EqbsKbYxLDrMO0DcOUGknDkcKwwp3DoMKRDEDCrnbDhBIowrHDn2MxXzlVBsOgw5FKw5vDsRrCgAJdVwfCusKwSgFzWjvDrQnDug4WE8KQw5HClMKkfWQ5woN3w6gdwrTDgHLCvcOqGmDCpEDCg8KBw4PDlXfCsBjCiFvCmsOiDlIWwpXCsBZzJj8RwrnCpsKXwp4dIB7DgcOZw7J3wrDCmAdXwqIBM23CulVSAz3Dqg3Dm8OTwqkFOXvCgzJEQcKUblY9wpPDlsO6w7QtFsKLGMOxBEEWw43DlcOtXFFsw4pkGcO3wq44IC1nc8K+T8KffsKPw4XDumXDqMKMw7tawqkLI8KLwoDCjlA5ETjDs2bCugsjf8KzJsO8w69gMcK3KFcOw4nCkHPCpsKTwpnDiFLDnlJrOjHDg8K3YcOVQSjCncO/TVnDrMKCw5rCtxwGwr/Cm8ODw77DncOUw7TDtE3CqhR/w7jDpcOzwqLDvXzCuR3CgsKgIALCoSjCgcKgw4slwrBcPn1ewoTDo3zDpQPDsBHDgMKWIEIAOAjDgsOAEkfDgMOLwqXDs8OnwovCnwAMQsOow7zDszLDscKnWVV9GcKdf3vDs8Onw6fCu0nCnxfDs1h1wpXCmMKVQzAKQ8KzYcK3w6kfwq/Dt8O6XcKJw5fCicOgN2ZdaMOxw7PCosK5wpjCi8OOwqvChF/DiBLCgcOxJQTDgsOLX1/Cq8OEwrbCksKXasKVwpsIXApzASNTZhrCmBvDgcOvw7nChsKXdcK/w7wjw7wMEh9xFEBhdMKOEcKBQSjCgsK9w5zDjcKWW8OKbH0ywrU9GQPDl8KYw5LCncO5acOjw7PDpsKMwo7DgGrCtMO3MsO0b8Kbw50mwq0Iwp7DksOcSMOpwpV1w63CrRjCqMKkYgnDosOyE8KxBcKLw6rCuHh/wrMLa8KDWxLCtFtQO2/DlU4nw7l0bMOWwoXCoiEOwp/CnUNRXcK8wr/DmcOdWBhIWUXCl8KtQ1vCoinCulrCrUtIURhAwqjCqFJZQcK/w5fDrC7CjwTCtDNjf8KlKMO7NgBZwo7CmzxewqDDt8OCYS3DsDbCni7DnsOfw6zDkntKMhzDiVBHw5bDjgQqUwFrw6Byw4PCgsOxw73CpMKrwqHCsnh/wrMLwrpYwoNNw4sjwo/Dg8KGWhg7PnVYwpNQwprCsMKhw7AIwpTCksOFw7vCm8OdDVEODMKiw4HDm8KEXW3ClsOkwobCnMOLPQIdQGNjwqLDvcKpKBfDr292GwFfdSbDosKewo8hwrxlw6R6wrnDliHCn2BWWcK7VSLDrVDDvl7Cs0s0wqM2QAzDpApUwphsUQVzwpdGw6jCosOxw64MwrfCo8OJVsKLw7c3wrsqIAAdTh7DiCoww7F4WiZpdFhPw7TCusOXwoA0w5bDpMKXw5bDvW/DlcOsw45FZn0pNsO+w6XCuhLDgsKeQAh/woJAw6jDnnvDliXChMKXYXsSG8ObQUZ9R2MVZB7DiWzDiTR2wqrCrMOawofDnsKzwoDCmCxhw5rDhgMGwoZEJQsdw5YIwoDDoH5cwppCJ8K3wofDt8O1wp5XFAU6wpfDnFc4wo9VEyrDnUEtw47CqQXCq8KCw6/DhmfDgzrCoMO5VBFVwp7CsMK/woc+wps1QBbCmS4sCMKsw5bCoMONw6I5L8O6DMOVw5LCsVfDk8K7w7E7w5DChyPCq2XCrxfDpUTCijzDksKoI8OEHVnDkw3DqHnCvTAvS8Olw69Aw59sw6jCmnLCg8KVNRR6HMOlwqnDmQvCsEbDmUnCn3bCkcKeUsOSd8Kgw49LdMKvMMKdBMO1wpNxasKzw4LCicKREG1PJcOSw4PCpsKOc8OdN8ORw5c/w4RYZcKJZm5Ww7Z8w5V7XHDChFTCmsOoawrCtQ1AI3bCtsOow7x1eT4kLxvDvmvDjndOwrTDuMKTw492w6bDqsOgw6nDtsO+S8OTwp8Uw5TDn8Kcw7/CjsOswq7Dnx8sK0lhSSQte8KbwrPCoUDCrsOUUxsaLWXDnRLDpkR8dUvDhMOecmViDGc5wrfCj3LClcK3UyDDscKdVsOAYMKhbcOQwoEgw7zCjDvCv8OdEl3DucKLLcORw5Miwp9+VQXDsMKOb8KGw43CkWpmw5QdwqFCKsKOYGbDsEfCn8Ofw4fDuAbDjcOfwoJLHcKYV1VXB8Otw43DvsKNwoNHPsKWw5jDjgAYNjrDoWozwqXCukgfdcKRw6QDw4bDgMK2w5zDoWbDlcOVw4EXw4nCi8Kqw4nCncOBVT/CqErDl3nDocOxDl3CncKIwqhJNA7DkTcCwqBCIsOQBMKFHWovDR5Mw47DoMKqw5/CqMK6IsKifXTCsD3CnCHDgsKwfHvCoMKWwod2wrfClQ0vwrDChXPCt8KMGcOJA8OwwrfDoEoOdwfCn8K3wqjCh8KwG8OnaMKMR8OPP8OAasOTDSs8wovCp8Kxw5/CuUNwYCAeFV4Ow4/CnsK3wqjDkz3DrFcHH8K3KMOWwpjDhnPDksKFw65pw5zCtCV4w6zCmXgCwr1xDVhzwoNTw7PDhcONwqrCq8KDf8KXLSpOwqI4wp/Dn8OdW8OQYn86aMO/w4nCgQhwO8KKJcKgw6fCnggkw77CpQPCkcO4woBsKMKBOXlLwrHDoVMmw47DjMKxw5NpwonDncOjwrBEwqZew7zDgA1dw5vDrUVZODrCgMKdHBHCgjVqKsKZDHNTWsOwwpnCt3PDoX3DnMKAwrYcw7tFOsOAwrjCkjJAAcKSMDY5FMKPw7fClsKETVzDh0I6wq4fwqXCs3FNwqPCq8Ocw6MmZE/DmhDDrXXDgxAzbMOJDifClcOyV8KOwpRuCnDCiH0cWsOdw5PDr1Fuw4vDsXxXNy5tYXXCtg8rwpvCj8KkIsOAeAUWRF8Ww4lbJkPCp8Kvbl7DgMObw43Cqz3CgCEzYcKUHsKuBC4kOVXDnklTwqFZwqpHYcK7LcOzcsKowrfDr8OHRMKOw4JvwpbCjgrCscKpw5ReQlAbw4Aqw5AcIXrCt8KVw7ZgaMK1w7p+DsO4w64uwpdCb3HDqcKFSgvCiyV7wobDoR3CuVvCgzDCoTrCkC85w4AywrVPAzfCvsOFZcO9bVwGAxbDgcOow65Eb8KsVUzCjcODw5EGwrZcNkwqWMKUw7HDjMKKN2/CrsKBw7nCu8OgwrLCuWDDsh9fRcOnwp9xUMO5V8KiUwsbVG0owoXClVh0woPDkBPCvFzCkxRMw60LwpJywrbDocK6f0BnwrNyeWQDwoZHJ8Ofw4rCksK8RMKPw7twC2wYfsKTDsO0wo4Kwr/Co3B9bBvCtcKqw6vDlsOZw7LCkMOtaMKuU8KqccKMw4tJGmpAwonDlHPCtMO0w4U3woXDqwM0DkYwwopHwqgRVcKwwqvDgiFFN8OnwpVMwq/Djz0MwrjDg8OGw50/FMKuw40dGsOXwr3DtcKxcMOlwpN5w592wqjCncKFFyzCucOCdMK2EsK0FMKoCsKqKFBcdnbCt8K8HMK3XxTCrl/DgcK+TFYnwpQOwonDkcOYwoUcw5smw7vCrcKxw6Vwwr9NLXrCgzXDgMO5O8KwLwPCjR9Fw6DCpkbCmcKpP8ODwrTChsKVwq1pwrBewq8Aw5I+w5LDjMOvw4DDvj4NBEwnWCsOT8KJw45lazzDkWV3LzQHw47CosOOwpvDom9VwrjCunNCVMOFw5chw7fDp1fCscO/WcOIwq1PwqXCpFYEw5LDuQkUwqoUw6YWwrVaw6HDvnp7wpTDvEnDhMKgB8OIwqFGw4QEwqEAw7DDosKYw7YAU3HDvcOqw6zCrCp5SnzDtxjCmMK7w7dBbm1ow5kXScOKwpfCjcOLSsK8NEFjM8OEAhLCsjTCqRFUaSNBNMOsUcOxwp5GCWEkbzZEwpHDrnfCgMOpCsKiaR3ClcKdw48cw5tKZcK9QMK1D8OOw6RDw6Rdw67CuMOdwr/DiWRrw6PDqMKUw6F3OVMOGzNaTgItYDwiYMKQwrw1WQ57KTh9O8KVB3fDt8Kaw4l2wonDoF/CmH7DsDbDp8OUI8KXwonCrsOOVQFnw6Z5w5zDiHnDm0wrw5BTw4sVw79aBsKjw6EdX3/DsRbDosOlScO9wpcmMX5LYsOkw7k8GUTDv8KlHC7CjgVQw4HCgm7DtMOyIFthYnhkRMOjw5Rcw5pNw7nClhXCg8KHHBbDsCB1Bi9RYk9Bw5AtKCHChHBmw6zCoxo0HcOJWsONwrXCjcO8w7fChsOfwqnDqzzDscKcLsKpw4oPRVIEw53DucO5LMOow4XDhBgYwpnCgwbCssKUQDocT8KydCXDrio6wojDmnjDoMKcwqMVfwnCsxdgwqVLwrHClmXCksKUw69PLzJ/SMK7VVZVwqzCoHoOFjHDrkHCtDjCt8OWWA3DoMOjw7rDuX9RWFnCjWQvwodgwpp+w6VndMOqN3rCusO3wpdQW8KzTcKPwpkNwqxKw6sdwqY2wq14RMOywqvCnEjDgMOew6V+wqfCu8OcFHlRcz5SKEBEwpjCksKew6fCosKuwqnDl8KrcXVgw6gNZSZXOUE/wrFyw4XDqgzDsGrDp0zCsCvCtnQGAsOPcMOiwowdw5TDnMKpIcKfwrXCujIRDsOHw7bDuRgxVcK8VC7CjcODWnvClUMHw5HDqAEdQTgHwph0w6PDgEjCuEQQK8KDwrbDgRPDgcOEw4/Cj8K5KcKSO8OJfcKIc8O3w7vCpcKGwoBpw4jDocKMw5rDpHDCsFVqA8ObCHgIYyYfw7dtGMK4w6/CgGgwBGXDpcK/wrLDm3PDiiDCt0c3MMKKYxDCviTDsGvDhsO8dsO0A8KIfQQAAgABwpzCgBACw4HClk8fYMOkw7rChAXChMKWc2oBCETDvMO8H8KFw6UfwobDn8OES8OrdU4WwqnCpcKhFsK3DMO0LsOsVDPClMO2KMOaWwzCqj3DgMOPw44dwojCqHLClMOGw6xDwqTClHARwpnDiMO5WBBMwoLCsTvCscOEwq7DsMO7YcKewphjw57CsMOfZ8KqYiXDvnrCp29lwpzCpisew4XCsMOlSMOrG8Oawrtww6rDohPChGIXfn3DvsKsLg9KLkvDo3rDmVfCvMKfw4fCr3TDt8KKw4PCvRMFw78AF8K/w74/eH3CkMOl]]></gravitDesigner:gravitGraphicSource></svg>

<svg xmlns="http://www.w3.org/2000/svg" xmlns:xlink="http://www.w3.org/1999/xlink" style="isolation:isolate" width="256" height="256"><switch><g><path d="M78.924 15.5c-35.296 0-39.094 3.625-38.921 38.994v146.012c-.173 35.369 3.625 38.994 38.921 38.994h98.157c35.297 0 38.922-3.625 38.922-38.994V54.494c0-35.369-3.625-38.994-38.922-38.994H78.924z" fill="none" vector-effect="non-scaling-stroke" stroke-width="4" stroke="#000" opacity=".2"/><defs><filter id="a" x="-200%" y="-200%" width="400%" height="400%" filterUnits="objectBoundingBox" color-interpolation-filters="sRGB"><feGaussianBlur xmlns="http://www.w3.org/2000/svg" stdDeviation="2.12"/></filter></defs><path d="M78.924 16.5c-35.296 0-39.094 3.625-38.921 38.994v146.012c-.173 35.369 3.625 38.994 38.921 38.994h98.157c35.297 0 38.003-3.637 38.922-38.994V55.494c0-35.369-3.625-38.994-38.922-38.994H78.924z" opacity=".1" filter="url(#a)"/><defs><filter id="b" x="-200%" y="-200%" width="400%" height="400%" filterUnits="objectBoundingBox" color-interpolation-filters="sRGB"><feGaussianBlur xmlns="http://www.w3.org/2000/svg" stdDeviation="8.48"/></filter></defs><g opacity=".3" filter="url(#b)"><linearGradient id="c" x1="-.068" y1=".031" x2=".954" y2="1.053" gradientTransform="matrix(176.0054 0 0 224 39.997 16.5)" gradientUnits="userSpaceOnUse"><stop offset="0%" stop-opacity=".588"/><stop offset="88%" stop-opacity="0"/><stop offset="100%"/></linearGradient><path d="M78.924 16.5c-35.296 0-39.094 3.625-38.921 38.994v146.012c-.173 35.369 3.625 38.994 38.921 38.994h98.157c35.297 0 38.922-3.625 38.922-38.994V55.494c0-35.369-3.625-38.994-38.922-38.994H78.924z" fill="url(#c)"/></g><path d="M78.924 15.5c-35.296 0-39.094 3.625-38.921 38.994v146.012c-.173 35.369 3.625 38.994 38.921 38.994h98.157c35.297 0 38.922-3.625 38.922-38.994V54.494c0-35.369-3.625-38.994-38.922-38.994H78.924z" fill="#1A7FD4"/><path d="M78.925 15.5c-35.297 0-39.095 3.626-38.922 38.994v2C39.83 21.126 43.628 17.5 78.925 17.5h98.156c35.297 0 38.922 3.626 38.922 38.994v-2c0-35.368-3.625-38.994-38.922-38.994H78.925z" fill="#FFF" opacity=".6"/><path d="M128.003 15.5v224h49.078c35.297 0 38.003-3.636 38.922-38.993V54.493c0-35.368-3.625-38.993-38.922-38.993h-49.078z" fill="#FFF" opacity=".1"/><path d="M156.003 239.5l60-60v22.484c-.053 33.996-3.803 37.516-38.174 37.516h-21.826z" fill="#FFF" opacity=".2"/><path d="M115.481 182L74 90.011 108.227 74l26.919 62.532 32.323-15.759L182 150.482" fill-rule="evenodd" fill="#FFF"/></g><foreignObject requiredExtensions="http://ns.gravit.io/"> </foreignObject></switch> </svg>
